X: 156
T: David White's Reel
C: Jerry Holland
S: BSFC (handwritten MS)
R: reel
Z: 2005 John Chambers <jc:trillian.mit.edu>
M: C|
L: 1/8
K: D
D | "D"FAAG     BAAd |  "G"B2AB "D"degf    | "A7"e2fe "D"d2ed |  "G"B2dF "A7"EDEG |
y2| "D"FAAG     BAAd |  "G"B2AB "D"degf    | "Em"edef "G"B2dB | "A7"AFEG  "D"FDD  :|
f | "D"abaf  "A"edef | "Em"edef "G"[ge]dB2 |  "D"ABde    dBAF |  "D"ABdA "A7"FEE  ||
f | "D"abaf  "A"edef | "Em"edef "A"edB2    |  "D"ABde    dBAF | "A7"EDEG  "D"FDD  |]
f | "D"abaf "Bm"edef | "Em"edef "G"[ge]dB2 |  "D"ABde    dBAF |  "D"ABdA "A7"FEE  ||
G | "D"FAAG     BAAd |  "G"B2AB "D"degf    | "Em"edef "G"B2dB | "A7"AFEG  "D"FDD  |]

%%sep 1 1 500

